X:1
T: Pibroch o' Donuil Dhu
C:
R:Jig
Q:180
K:A
M:6/8
L:1/16
|:e2c2c2 f2g2a2|e2c2c2 c2B2A2|e2c2c2 f2g2a2|e2c2A2 B4A2|
e2c2c2 f2g2a2|e2c2c2 c2B2A2|B4c2 d2e2f2|e2c2A2 B4A2|
a2e2e2 a2d2d2|a2e2c2 c2B2A2|a2e2e2 a2d2d2|e2c2A2 B4A2|
a2e2e2 a2d2d2|a2e2c2 c2B2A2|B4c2 d2e2f2|e2c2A2 B4A2:|
